X: 318
T:Thursday Night
% Nottingham Music Database
S:EF
Y:AB
M:6/8
K:A
P:A
E|"A"A2E A2c|"A"e2e ece|"D"fga "A/c+"e2c|"Bm"e3 "E"efg|
"D"agf d2f|"A"fec A2e|"Bm"efe "E7"dcB|"A"A3 A2:|
P:B
(3A/2c/2e/2|"A"a2e g2e|"A"fec "E7"Ace|"A"a2e g2e|"Bm"fec "E7"B3|
"A""C#m"a2e g2e|"A"fec Acd|"Bm"efe "E7"dcB|"A"A3 A2:|


